static/assets/images/icons/flame.svg

<svg width="256" height="256" viewBox="0 0 256 256" fill="none" xmlns="http://www.w3.org/2000/svg">
<path d="M190.464 119.996C187.951 116.713 184.892 113.867 182.051 111.021C174.73 104.454 166.426 99.7482 159.433 92.8531C144.719 78.4117 140.358 55.4779 147.317 36.251C148.191 33.837 146.077 31.2804 143.675 32.1871C135.864 35.1356 128.878 39.7434 122.72 44.6961C94.4198 67.4612 83.2746 107.628 96.6051 142.104C97.0421 143.199 97.4792 144.293 97.4792 145.716C97.4792 148.124 95.8402 150.313 93.6549 151.189C91.1418 152.283 88.5194 151.626 86.4434 149.875C85.8232 149.355 85.3046 148.724 84.9136 148.015C75.2779 135.8 71.9641 119.453 74.9204 104.332C75.5311 101.208 71.733 98.6975 69.7061 101.151C57.3865 116.064 50.9745 136.399 52.1339 155.785C52.7895 161.258 53.4451 166.73 55.3026 172.203C56.8323 178.769 59.7825 185.336 63.0605 191.137C74.8612 210.071 95.2939 223.643 117.256 226.379C140.639 229.334 165.661 225.066 183.581 208.867C203.576 190.699 210.569 161.586 200.298 136.632L198.878 133.786C196.583 128.752 190.464 119.996 190.464 119.996ZM155.936 188.948C152.877 191.575 147.851 194.42 143.917 195.515C135.06 198.683 126.203 196.348 119.252 192.078C115.916 190.029 117.151 185.241 120.577 183.347C128.599 178.911 133.534 171.539 135.285 164.103C137.143 155.348 133.646 148.124 132.226 139.697C131.562 135.599 131.291 131.81 131.566 128.088C131.886 123.764 137.15 123.389 139.625 126.948C140.06 127.573 140.507 128.176 140.967 128.752C149.38 139.697 162.602 144.512 165.442 159.397C165.88 160.929 166.098 162.462 166.098 164.103C166.426 173.078 162.492 182.928 155.936 188.948Z" fill="black"/>
</svg>

<svg xmlns="http://www.w3.org/2000/svg" fill="none" viewBox="0 0 256 256"><path fill="#000" d="M190.464 119.996c-2.513-3.283-5.572-6.129-8.413-8.975-7.321-6.567-15.625-11.273-22.618-18.168-14.714-14.441-19.075-37.375-12.116-56.602.874-2.414-1.24-4.97-3.642-4.064-7.811 2.949-14.797 7.556-20.955 12.51-28.3 22.764-39.445 62.931-26.115 97.407.437 1.095.874 2.189.874 3.612 0 2.408-1.639 4.597-3.824 5.473-2.513 1.094-5.136.437-7.212-1.314a6.6 6.6 0 0 1-1.53-1.86c-9.635-12.215-12.949-28.562-9.993-43.683.611-3.124-3.187-5.634-5.214-3.181-12.32 14.913-18.732 35.248-17.572 54.634.655 5.473 1.311 10.945 3.169 16.418 1.53 6.566 4.48 13.133 7.758 18.934 11.8 18.934 32.233 32.506 54.195 35.242 23.383 2.955 48.405-1.313 66.325-17.512 19.995-18.168 26.988-47.281 16.717-72.235l-1.42-2.846c-2.295-5.034-8.414-13.79-8.414-13.79m-34.528 68.952c-3.059 2.627-8.085 5.472-12.019 6.567-8.857 3.168-17.714.833-24.665-3.437-3.336-2.049-2.101-6.837 1.325-8.731 8.022-4.436 12.957-11.808 14.708-19.244 1.858-8.755-1.639-15.979-3.059-24.406-.664-4.098-.935-7.887-.66-11.609.32-4.324 5.584-4.699 8.059-1.14q.652.939 1.342 1.804c8.413 10.945 21.635 15.76 24.475 30.645a17 17 0 0 1 .656 4.706c.328 8.975-3.606 18.825-10.162 24.845"/></svg>
